assets/gcpdatapol/original.svg

<svg height="24" width="24" xmlns="http://www.w3.org/2000/svg"><path d="m9.65 3.87h8.29v1.87h-8.29z" fill="#4285f4"/><path d="m4.55 11.35h8.29v1.87h-8.29z" fill="#4285f4"/><path d="m9.65 18.21h8.29v1.87h-8.29z" fill="#4285f4"/><g fill-rule="evenodd"><path d="m6.57 13.38 3.25 5.51-1.66.93-3.25-5.51z" fill="#4285f4"/><path d="m6.8 10.91 3.25-5.51-1.61-.91-3.25 5.51z" fill="#4285f4"/><path d="m7.48 7.66-1.66-2.81 1.66-2.85h3.31l1.65 2.85-1.65 2.81z" fill="#aecbfa"/><path d="m13.21 15.14-1.65-2.8 1.65-2.86h3.31l1.66 2.86-1.66 2.8z" fill="#aecbfa"/><path d="m3.65 15.14-1.65-2.8 1.65-2.86h3.31l1.65 2.86-1.65 2.8z" fill="#aecbfa"/><path d="m17.04 7.66-1.65-2.81 1.65-2.85h3.31l1.65 2.85-1.65 2.81z" fill="#aecbfa"/><path d="m17.04 22-1.65-2.81 1.65-2.85h3.31l1.65 2.85-1.65 2.81z" fill="#aecbfa"/><path d="m7.48 22-1.66-2.81 1.66-2.85h3.31l1.65 2.85-1.65 2.81z" fill="#aecbfa"/></g></svg>

<svg xmlns="http://www.w3.org/2000/svg" width="24" height="24"><defs><style>.cls-1,.cls-2{fill:#4285f4}.cls-2,.cls-3{fill-rule:evenodd}.cls-3{fill:#aecbfa}</style></defs><g data-name="Product Icons"><path id="Rectangle-13-Copy-3" class="cls-1" d="M9.65 3.87h8.29v1.87H9.65z"/><path id="Rectangle-13" class="cls-1" d="M4.55 11.35h8.29v1.87H4.55z"/><path id="Rectangle-13-Copy-2" class="cls-1" d="M9.65 18.21h8.29v1.87H9.65z"/><path id="Rectangle-13-Copy" class="cls-2" d="m6.57 13.38 3.25 5.51-1.66.93-3.25-5.51 1.66-.93z"/><path class="cls-2" d="m6.8 10.91 3.25-5.51-1.61-.91L5.19 10l1.61.91z"/><path id="Combined-Shape-path-Copy" class="cls-3" d="M7.48 7.66 5.82 4.85 7.48 2h3.31l1.65 2.85-1.65 2.81H7.48z"/><path id="Combined-Shape-path-Copy-5" class="cls-3" d="m13.21 15.14-1.65-2.8 1.65-2.86h3.31l1.66 2.86-1.66 2.8h-3.31z"/><path id="Combined-Shape-path" class="cls-3" d="M3.65 15.14 2 12.34l1.65-2.86h3.31l1.65 2.86-1.65 2.8H3.65z"/><path id="Combined-Shape-path-Copy-2" class="cls-3" d="m17.04 7.66-1.65-2.81L17.04 2h3.31L22 4.85l-1.65 2.81h-3.31z"/><path id="Combined-Shape-path-Copy-3" class="cls-3" d="m17.04 22-1.65-2.81 1.65-2.85h3.31L22 19.19 20.35 22h-3.31z"/><path id="Combined-Shape-path-Copy-4" class="cls-3" d="m7.48 22-1.66-2.81 1.66-2.85h3.31l1.65 2.85L10.79 22H7.48z"/></g></svg>
